X:1
T:Granada, 87.87 D
T:Granada, 87.87 D
T:Edwin Barnes, 1886
T:Public Domain Courtesy of the Cyber Hymnal™
C:Edwin Barnes, 1886
Z:Public Domain
Z:Courtesy of the Cyber Hymnal™
%%score ( 1 2 ) ( 3 4 )
L:1/8
Q:1/4=90
M:3/4
K:A
V:1 treble 
V:2 treble 
V:3 bass 
V:4 bass 
V:1
 [CE][CA] | [Ec]3 [Ee] [EA][CE] | [DG] [DF]3 [B,G][CA] | [DB]3 [EG] [EA][EB] | [Ec]4 [EA][EB] | %5
 [Ec]3 [Ee] [Ec][=GA] | [Fd] [Fd]3 [FA][FB] | [Ec]3 [EA] [EB][EG] | [EA]4 [Cc][Cc] | %9
 [Cc]3 [Cc] AB | c c3 [Ac][Ac] | [Ac]3 [Ac] [A^d][AB] | [Ge]4 [EA][EB] | [Ec]3 [Ee] [Ec][=GA] | %14
 [Fd] [Fd]3 [FA][FB] | [Ec]3 [EA] [EB][EG] | [EA]4 |] %17
V:2
 x2 | x6 | x6 | x6 | x6 | x6 | x6 | x6 | x6 | x4 AB | c c3 x2 | x6 | x6 | x6 | x6 | x6 | x4 |] %17
V:3
 [A,,A,][A,,A,] | [A,,A,]3 [A,,C] [A,,C][A,,A,] | [D,A,] [D,A,]3 E,E, | %3
 [E,G,]3 [D,B,] [C,A,][B,,G,] | [A,,A,]4 [A,C][A,B,] | A,3 [A,,C] [A,,A,][C,A,] | %6
 [D,A,] [D,A,]3 [D,A,][D,A,] | [E,A,]3 [E,C] [E,D][E,B,] | [A,C]4 CC | C3 C A,B, | %10
 C C3 [A,E][A,E] | [A,E]3 [A,E] B,[B,,B,] | (B,2 D2) [A,C][A,B,] | A,3 [A,,C] [A,,A,][C,A,] | %14
 [D,A,] [D,A,]3 [D,A,][D,A,] | [E,A,]3 [E,C] [E,D][E,B,] | [A,,C]4 |] %17
V:4
 x2 | x6 | x4 E,E, | x6 | x6 | A,3 x3 | x6 | x6 | x4 CC | C3 C A,B, | C C3 x2 | x4 B, x | E,4 x2 | %13
 A,3 x3 | x6 | x6 | x4 |] %17

